packages/icons/svg/24/FormatAlignCenter.svg

<svg width="24" height="24" fill="none" xmlns="http://www.w3.org/2000/svg" viewBox="0 0 24 24"><path fill-rule="evenodd" clip-rule="evenodd" d="M7 16c0 .55.45 1 1 1h8c.55 0 1-.45 1-1s-.45-1-1-1H8c-.55 0-1 .45-1 1zM4 21h16c.55 0 1-.45 1-1s-.45-1-1-1H4c-.55 0-1 .45-1 1s.45 1 1 1zM4 13h16c.55 0 1-.45 1-1s-.45-1-1-1H4c-.55 0-1 .45-1 1s.45 1 1 1zM7 8c0 .55.45 1 1 1h8c.55 0 1-.45 1-1s-.45-1-1-1H8c-.55 0-1 .45-1 1zM3 4c0 .55.45 1 1 1h16c.55 0 1-.45 1-1s-.45-1-1-1H4c-.55 0-1 .45-1 1z" fill="currentColor"></path></svg>

<svg width="24" height="24" viewBox="0 0 24 24" fill="none" xmlns="http://www.w3.org/2000/svg">
<path fill-rule="evenodd" clip-rule="evenodd" d="M7 16C7 16.55 7.45 17 8 17H16C16.55 17 17 16.55 17 16C17 15.45 16.55 15 16 15H8C7.45 15 7 15.45 7 16Z" fill="#858585"/>
<path fill-rule="evenodd" clip-rule="evenodd" d="M4 21H20C20.55 21 21 20.55 21 20C21 19.45 20.55 19 20 19H4C3.45 19 3 19.45 3 20C3 20.55 3.45 21 4 21Z" fill="#858585"/>
<path fill-rule="evenodd" clip-rule="evenodd" d="M4 13H20C20.55 13 21 12.55 21 12C21 11.45 20.55 11 20 11H4C3.45 11 3 11.45 3 12C3 12.55 3.45 13 4 13Z" fill="#858585"/>
<path fill-rule="evenodd" clip-rule="evenodd" d="M7 8C7 8.55 7.45 9 8 9H16C16.55 9 17 8.55 17 8C17 7.45 16.55 7 16 7H8C7.45 7 7 7.45 7 8Z" fill="#858585"/>
<path fill-rule="evenodd" clip-rule="evenodd" d="M3 4C3 4.55 3.45 5 4 5H20C20.55 5 21 4.55 21 4C21 3.45 20.55 3 20 3H4C3.45 3 3 3.45 3 4Z" fill="#858585"/>
</svg>
